src/assets/icons/role.svg

<svg viewBox="0 0 20 21" xmlns="http://www.w3.org/2000/svg">
<path d="M19.3798 3.75998C19.3457 3.63229 19.2866 3.51263 19.2059 3.40792C19.1252 3.30322 19.0246 3.21555 18.9098 3.14998L13.7098 0.149979C13.5963 0.0834466 13.4708 0.0399777 13.3404 0.0220645C13.21 0.0041513 13.0774 0.012146 12.9501 0.0455904C12.8228 0.0790348 12.7034 0.137271 12.5987 0.216961C12.494 0.29665 12.406 0.396226 12.3398 0.509979L9.99985 4.56998L7.65985 0.509979C7.59369 0.396226 7.50572 0.29665 7.401 0.216961C7.29628 0.137271 7.17685 0.0790348 7.04958 0.0455904C6.92231 0.012146 6.78968 0.0041513 6.65931 0.0220645C6.52894 0.0399777 6.40339 0.0834466 6.28985 0.149979L1.08985 3.14998C0.975081 3.21555 0.874451 3.30322 0.793778 3.40792C0.713105 3.51263 0.653989 3.63229 0.619849 3.75998C0.553666 4.01343 0.589573 4.28273 0.71985 4.50998L4.71985 11.34C4.2736 12.1575 4.02689 13.069 3.99985 14C3.99747 14.9083 4.20133 15.8052 4.59607 16.6233C4.9908 17.4413 5.56611 18.159 6.27861 18.7223C6.9911 19.2857 7.8222 19.6799 8.70922 19.8753C9.59625 20.0706 10.5161 20.0621 11.3993 19.8502C12.2825 19.6384 13.1061 19.2287 13.808 18.6523C14.5099 18.0758 15.0718 17.3475 15.4512 16.5222C15.8306 15.697 16.0178 14.7964 15.9985 13.8883C15.9792 12.9802 15.754 12.0884 15.3398 11.28L19.2398 4.51998C19.3124 4.40892 19.3622 4.28453 19.3862 4.15405C19.4103 4.02357 19.4081 3.88961 19.3798 3.75998ZM2.99985 4.37998L6.45985 2.37998L9.67985 7.99998C8.30727 8.08478 7.00664 8.6432 5.99985 9.57998L2.99985 4.37998ZM9.99985 18C8.93898 18 7.92157 17.5786 7.17142 16.8284C6.42128 16.0783 5.99985 15.0608 5.99985 14C5.99985 12.9391 6.42128 11.9217 7.17142 11.1716C7.92157 10.4214 8.93898 9.99998 9.99985 9.99998C11.0607 9.99998 12.0781 10.4214 12.8283 11.1716C13.5784 11.9217 13.9998 12.9391 13.9998 14C13.9998 15.0608 13.5784 16.0783 12.8283 16.8284C12.0781 17.5786 11.0607 18 9.99985 18ZM13.9998 9.54998C13.4569 9.05409 12.8261 8.66406 12.1398 8.39998L11.1598 6.56998L13.5798 2.37998L17.0399 4.37998L13.9998 9.54998Z"/>
</svg>

<svg viewBox="0 0 20 21" xmlns="http://www.w3.org/2000/svg">
  <path d="M19.38 3.76a.999.999 0 0 0-.47-.61l-5.2-3a1 1 0 0 0-1.37.36L10 4.57 7.66.51A1 1 0 0 0 6.29.15l-5.2 3a1 1 0 0 0-.47.61 1 1 0 0 0 .1.75l4 6.83A5.91 5.91 0 0 0 4 14a6 6 0 1 0 11.34-2.72l3.9-6.76a1 1 0 0 0 .14-.76zM3 4.38l3.46-2L9.68 8A5.94 5.94 0 0 0 6 9.58l-3-5.2zM10 18a4 4 0 1 1 0-8 4 4 0 0 1 0 8zm4-8.45a5.9 5.9 0 0 0-1.86-1.15l-.98-1.83 2.42-4.19 3.46 2L14 9.55z"/>
</svg>
